X:1
T:Where were you all the day
M:3/4
L:1/4
K:G
 d/2c/2| BA/2-G/2 G| A- d c| A G G| G2 B/2c/2| d g e| d- G B| c c e|\
 d2 B/2c/2| d gg/2-e/2| d GG/4-A/4 B/2| cc/2-d/2e/2-f/2| d2 d/2c/2|\
 BA/2-G/2 G| A- d d3/4 c/4| A G G| G2||
